X: 1
T: Ballinamore
M: 4/4
L: 1/8
R: reel
K: Edor
G2 BG E2 AG|FDFA dAFA|G2 BG EFGA|1 BGAF GEEF:|2 BGAF GEEd||
eB ~B2 efge|fa ~a2 bfaf|eB ~B2 efge|fagf efgf|
eB ~B2 efge|fa ~a2 bfaf|eB ~B2 dBAB|d2 de fdAF||
